!!!!SEGMENT: pl-kk--kk-i-319--002_lilius-franciszek--sanctorum-meritis.krn
!!!cenid: 17xx:2119
!!!COM: Lilius, Franciszek
!!!COM-rismid: pe30020509
!!!CDT: ~1600-1657
!!!CNT: Polish
!!!OTL: Sanctorum meritis
!!!PDT:
!!!AGN: Sacred
!!!SMS-siglum: PL-Kk
!!!SMS-shelfmark: Kk.I.319
!!!SMS-shelfwork: 002 W
!!!SMS-variant:
!!!SMS-altvar:
!!!NIFC-rismid: 1001146203
!!!URL-scan: http://repozytorium.nifc.pl/skany/pl-kk-nut--i-319
!!!ONB-nifc: UWAGA: utwory w zbiorze: 1. Ave maris stella, 2. Sanctorum meritis
!!!key:
**kern	**text	**text	**text	**text	**kern	**text	**text	**text	**text	**kern	**text	**text	**text	**text	**kern	**text	**text	**text	**text
*part4	*part4	*part4	*part4	*part4	*part3	*part3	*part3	*part3	*part3	*part2	*part2	*part2	*part2	*part2	*part1	*part1	*part1	*part1	*part1
*staff4	*staff4	*staff4	*staff4	*staff4	*staff3	*staff3	*staff3	*staff3	*staff3	*staff2	*staff2	*staff2	*staff2	*staff2	*staff1	*staff1	*staff1	*staff1	*staff1
*Iempty	*	*	*	*	*Itenor	*	*	*	*	*Ialto	*	*	*	*	*Ivox	*	*	*	*
*I"Baſso.	*	*	*	*	*I"Tenore	*	*	*	*	*I"Alto.	*	*	*	*	*I"Canto.	*	*	*	*
*I'B	*	*	*	*	*I'T	*	*	*	*	*I'A	*	*	*	*	*I'S	*	*	*	*
*clefF4	*	*	*	*	*clefC4	*	*	*	*	*clefC3	*	*	*	*	*clefC1	*	*	*	*
*k[]	*	*	*	*	*k[]	*	*	*	*	*k[]	*	*	*	*	*k[]	*	*	*	*
*a:	*	*	*	*	*a:	*	*	*	*	*a:	*	*	*	*	*a:	*	*	*	*
*M3/1	*	*	*	*	*M3/1	*	*	*	*	*M3/1	*	*	*	*	*M3/1	*	*	*	*
=1-	=1-	=1-	=1-	=1-	=1-	=1-	=1-	=1-	=1-	=1-	=1-	=1-	=1-	=1-	=1-	=1-	=1-	=1-	=1-
*2\right	*	*	*	*	*2\right	*	*	*	*	*2\right	*	*	*	*	*2\right	*	*	*	*
!LO:TX:a:i:t=De S. S. Martÿribus  V. L.	!	!	!	!	!LO:TX:a:i:t=De S. S. Martÿribus  V. L.	!	!	!	!	!LO:TX:a:i:t=De S. S. Martÿrib(us)  V. L.	!	!	!	!	!LO:TX:a:i:t=De S. S. Martÿrib(us)  V. L.	!	!	!	!
1A	1. Sanc-	2. Hi	3. Hic	4. C(ae)-	1A	1. Sanc-	2. Hi	3. Hic	4. C(ae)-	1e	1. Sanc-	2. Hi	3. Hic	4. C(ae)-	1cc	1. Sanc-	2. Hi	3. Hic	4. C(ae)-
1A	-to-	ſunt	pro	-dun-	1A	-to-	sunt	pro	-dun-	1e	-to-	ſunt	pro	-dun-	1cc	-to-	ſunt	pro	-dun-
!LO:TX:t=P:problem:kreska pseudotaktowa	!	!	!	!	!LO:TX:t=P:problem:kreska pseudotaktowa	!	!	!	!	!LO:TX:t=P:problem:kreska pseudotaktowa	!	!	!	!	!LO:TX:t=P:problem:kreska pseudotaktowa	!	!	!	!
1D	-rum	quos	te	-tur	1A	-rum	quos	te	-tur	1f	-rum	quos	te	-tur	1dd	-rum	quos	te	-tur
=2	=2-	=2-	=2-	=2-	=2	=2-	=2-	=2-	=2-	=2	=2-	=2-	=2-	=2-	=2	=2-	=2-	=2-	=2-
1.A	me-	fa-	fu-	gla-	1.c	me-	fa-	fu-	gla-	1.e	me-	fa-	fu-	gla-	1.cc	Me-	fa-	fu-	gla-
2F\	-ri-	-tu-	-ri-	-di-	2d\	-ri-	-tu-	-ri-	-di-	2f\	-ri-	-tu-	-ri-	-di-	2a\	-ri-	-tu-	-ri-	-di-
!LO:TX:t=P:problem:kreska pseudotaktowa	!	!	!	!	!LO:TX:t=P:problem:kreska pseudotaktowa	!	!	!	!	!LO:TX:t=P:problem:kreska pseudotaktowa	!	!	!	!	!LO:TX:t=P:problem:kreska pseudotaktowa	!	!	!	!
1G,	-tis	-è	-as,	-is	1B,	-tis	-è,	-as	-is,	1d,	-tis	-é	-as	-is	1b	-tis	-é	-as,	-is
=3	=3-	=3-	=3-	=3-	=3	=3-	=3-	=3-	=3-	=3	=3-	=3-	=3-	=3-	=3	=3-	=3-	=3-	=3-
1E	in-	mun-	at-	mo-	1c	in-	mun-	at-	mo-	1e	in-	mun-	at-	mo-	1.g	in-	mun-	at-	mo-
1C	-clÿ-	-d(us)	-que	-re	1c	-Clÿ-	-d(us)	-q(ue)	-re	1e	-Cly-	-d(us)	-q(ue)	-re	.	.	.	.	.
.	.	.	.	.	.	.	.	.	.	.	.	.	.	.	2e/	-Cly-	-d(us)	-q(ue)	-re
!LO:TX:t=P:problem:kreska pseudotaktowa	!	!	!	!	!LO:TX:t=P:problem:kreska pseudotaktowa	!	!	!	!	!	!	!	!	!	!LO:TX:t=P:problem:kreska pseudotaktowa	!	!	!	!
1F	-ta	ab-	mi-	bi-	1c	-ta	ab-	mi-	bi-	1c	-ta	ab-	mi-	bi-	1a	-ta	ab-	mi-	bi-
=4	=4-	=4-	=4-	=4-	=4	=4-	=4-	=4-	=4-	=4-	=4-	=4-	=4-	=4-	=4	=4-	=4-	=4-	=4-
0D	gau-	-ho-	-nas	-den-	0c	gau-	-ho-	-nas	-den-	0f	gau-	-ho-	-Nas	-den-	0a	gau-	-hor-	-nas	-den-
!LO:TX:t=P:problem:kreska pseudotaktowa	!	!	!	!	!	!	!	!	!	!LO:TX:t=P:problem:kreska pseudotaktowa	!	!	!	!	!	!	!	!	!
!	!	!	!	!	!	!	!	!	!	!	!	!	!	!	!LO:TX:a:t=P:problem:♮ above	!	!	!	!
1D	-di-	-ru-	Fru-	-ti-	1B	-di-	-ru-	fru-	-ti-	1f	-di-	-ru-	Cru-	-ti-	1fn	-di-	-ru-	tru-	-ti-
=5	=5-	=5-	=5-	=5-	=5-	=5-	=5-	=5-	=5-	=5	=5-	=5-	=5-	=5-	=5-	=5-	=5-	=5-	=5-
!	!	!	!	!	!LO:TX:t=P:problem:kreska pseudotaktowa	!	!	!	!	!LO:TX:t=P:problem:kreska pseudotaktowa	!	!	!	!	!LO:TX:t=P:problem:kreska pseudotaktowa	!	!	!	!
0.C,	-a	-it,	-ces,	-um,	0.c,	-a	-it,	-ces,	-um,	0.e,	-a	-it	-ces,	-um	0.g,	-a,	-it,	-ces,	-um,
=6-	=6-	=6-	=6-	=6-	=6	=6-	=6-	=6-	=6-	=6	=6-	=6-	=6-	=6-	=6	=6-	=6-	=6-	=6-
1G	pan-	hunc	Cal-	Non	1d	pan-	hunc	Cal-	Non	1g	pan-	hunc	Cal-	non	1b	pan-	hunc	Cal-	Non
1A	-ga-	fru-	-ca-	Mur-	1c	-ga-	fru-	-câ-	mur-	1e	-ga-	fru-	-ca-	mur-	1cc	-ga-	fru-	-ca-	Mur-
!LO:TX:t=P:problem:kreska pseudotaktowa	!	!	!	!	!LO:TX:t=P:problem:kreska pseudotaktowa	!	!	!	!	!LO:TX:t=P:problem:kreska pseudotaktowa	!	!	!	!	!LO:TX:t=P:problem:kreska pseudotaktowa	!	!	!	!
1F	-m(us)	-ctu	-runt	-mur	1d	-m(us)	-ctu	-runt	-mur	1d	-m(us)	-ctu	-runt	-mur	1a	-m(us)	-ctu	-runt	-mur
=7	=7-	=7-	=7-	=7-	=7	=7-	=7-	=7-	=7-	=7	=7-	=7-	=7-	=7-	=7	=7-	=7-	=7-	=7-
1.E	So-	Va-	ho-	re-	1.B	So-	Va-	ho-	re-	1.e	So-	Va-	ho-	re-	1.g	So-	Va-	ho-	re-
2E\	-ci-	-cu-	-mi-	-so-	2B\	-ci-	-cu-	-mi-	-ſo-	2e\	-ci-	-cu-	-mi-	-ſo-	2g/	-ci-	-cu-	-mi-	-ſo-
!LO:TX:t=P:problem:kreska pseudotaktowa	!	!	!	!	!LO:TX:t=P:problem:kreska pseudotaktowa	!	!	!	!	!LO:TX:t=P:problem:kreska pseudotaktowa	!	!	!	!	!LO:TX:t=P:problem:kreska pseudotaktowa	!	!	!	!
1E,	-i	-um	-num	-nat	1B	-i	-um	-num,	-nat	1e	-i	-um	-num,	-nat	1g	-i	-um	-num,	-nat,
=8	=8-	=8-	=8-	=8-	=8	=8-	=8-	=8-	=8-	=8	=8-	=8-	=8-	=8-	=8	=8-	=8-	=8-	=8-
1.C	ge-	flo-	s(ae)-	Non	1.c	ge-	flo-	sae-	Non	1.e	ge-	flo-	s(ae)-	non	1.e	ge-	flo-	s(ae)-	Non
2C/	-sta-	-ri-	-ua-	que-	2c\	-ſta-	-ri-	-ua-	que-	2e\	-ſta-	-ri-	-ua-	que-	2f#X/	-sta-	-ri-	-ua-	que-
!LO:TX:t=P:problem:kreska pseudotaktowa	!	!	!	!	!LO:TX:t=P:problem:kreska pseudotaktowa	!	!	!	!	!LO:TX:t=P:problem:kreska pseudotaktowa	!	!	!	!	!LO:TX:t=P:problem:kreska pseudotaktowa	!	!	!	!
1BB	-que	-b(us)	-que	-ri-	1d	-q(ue)	-b(us)	-q(ue)	-ri-	1d	-que	-b(us)	-q(ue)	-ri-	1g	-q(ue)	-b(us)	-qu(e)	-ri-
=9	=9-	=9-	=9-	=9-	=9	=9-	=9-	=9-	=9-	=9	=9-	=9-	=9-	=9-	=9	=9-	=9-	=9-	=9-
0D	for-	a-	Ver-	-mo-	0A	for-	a-	Ver-	-mo-	0d	for-	a-	Ver-	-mo-	0g	for-	a-	Ver-	-mo-
!LO:TX:t=P:problem:kreska pseudotaktowa	!	!	!	!	!LO:TX:t=P:problem:kreska pseudotaktowa	!	!	!	!	!LO:TX:t=P:problem:kreska pseudotaktowa	!	!	!	!	!	!	!	!	!
1D	-ci-	-ri-	-be-	-ni-	1A	-ci-	-ri-	-be-	-ni-	1d	-ci-	-ri-	-be-	-ni-	1f#X	-ti-	-ri-	-be-	-ni-
=10	=10-	=10-	=10-	=10-	=10	=10-	=10-	=10-	=10-	=10	=10-	=10-	=10-	=10-	=10-	=10-	=10-	=10-	=10-
1GG,	-a	-dum	-ra,	-a,	1B,	-a	-dum	-ra,	-a,	1d,	-a	-dum	-ra,	-a	1g,	-a	-dum,	-ra,	-a,
1GG	gliſ-	Con-	his	Sed	1B	glis-	Con-	his	sed	1d,	glis-	Con-	his	sed	1g	glis-	con-	his	sed
!LO:SIC:v:t=custos F	!	!	!	!	!LO:TX:t=P:problem:kreska pseudotaktowa	!	!	!	!	!LO:TX:t=P:problem:kreska pseudotaktowa	!	!	!	!	!LO:TX:t=P:problem:kreska pseudotaktowa	!	!	!	!
1G	-cens	-tem-	ceſ-	cor-	1B	-cens	-tem-	ceſ-	cor-	1d	-ce(n)s	-te(m)-	ceſ-	cor-	1g	-ce(n)s	-tem-	c(ae)ſ-	Cor-
=11-	=11-	=11-	=11-	=11-	=11	=11-	=11-	=11-	=11-	=11	=11-	=11-	=11-	=11-	=11	=11-	=11-	=11-	=11-
!LO:LB:g=original	!	!	!	!	!LO:LB:g=original	!	!	!	!	!	!	!	!	!	!	!	!	!	!
1F,	fert	-pse-	-ſsit	-de_im-	1c	fert	-pse-	-ſsit	-de	1f	fert	-pse-	-sit	-de	1a	fert	-pse-	-sit	de_im
2F\	a-	-re	la-	-pa-	2c\	a-	-re	la-	ta-	2f\	a-	-re	la-	ta-	2a/	a-	-re	la-	-pa-
2E\	-ni-	tu-	-ce-	-ui-	2c\	-ni-	tu-	-ce-	-ci-	2c\	-ni-	tu-	-ce-	-ci-	2g/	-ni-	tu-	-ce-	-ui-
!	!	!	!	!	!	!	!	!	!	!LO:TX:t=P:problem:kreska pseudotaktowa	!	!	!	!	!	!	!	!	!
!LO:TX:t=P:problem:kreska pseudotaktowa	!	!	!	!	!LO:TX:t=P:problem:kreska pseudotaktowa	!	!	!	!	!LO:SIC:v:t=custos e	!	!	!	!	!	!	!	!	!
1D	-m(us)	-i	-rans,	-do,	1B,	-m(us)	-i	-rans,	-to,	1d	-(mus)	-i	-ra(n)s	-to	1f	-m(us)	-i	-ra(n)s	-do
=12	=12-	=12-	=12-	=12-	=12	=12-	=12-	=12-	=12-	=12	=12-	=12-	=12-	=12-	=12	=12-	=12-	=12-	=12-
!	!	!	!	!	!	!	!	!	!	!LO:LB:g=original	!	!	!	!	!LO:LB:g=original	!	!	!	!
1.C	pro-	No-	for-	mens	1.c	pro-	No-	for-	mens	1.e	1 pro-	2 no-	3 for-	4 mens	1.g	pro-	no-	for-	mens
2C/	-me-	-mi-	-ti-	be-	2c\	-me-	-mi-	-ti-	be-	2f\	-Me-	-mi-	-ti-	be-	2a\	-me-	-mi-	-ti-	be-
!LO:TX:t=P:problem:kreska pseudotaktowa	!	!	!	!	!LO:TX:t=P:problem:kreska pseudotaktowa	!	!	!	!	!LO:TX:t=P:problem:kreska pseudotaktowa	!	!	!	!	!LO:TX:t=P:problem:kreska pseudotaktowa	!	!	!	!
1G	-re	-nis	-ter	-nè	1B	-re	-nis,	-ter	-nè	1g	-re	-nis,	-ter	-ne	1b	-re	-nis,	-ter	-ne
=13	=13-	=13-	=13-	=13-	=13	=13-	=13-	=13-	=13-	=13	=13-	=13-	=13-	=13-	=13	=13-	=13-	=13-	=13-
1A	Can-	aſ-	Vn-	Con-	1.A	Can-	aſ-	Vn-	Con-	1e	Can-	aſ-	Vn-	con-	1cc	Can-	aſ-	Vn-	Con-
!	!	!	!	!	!	!	!	!	!	!	!	!	!	!	!	!	!	!	!
1.F	.	.	.	.	.	.	.	.	.	(1e	-ti-	-se-	-gu-	-sci-	0a	-ti-	-se-	-gu-	-sci-
.	.	.	.	.	(2c\	.	.	.	.	.	.	.	.	.	.	.	.	.	.
!LO:TX:t=P:problem:kreska pseudotaktowa	!	!	!	!	!	!	!	!	!	!	!	!	!	!	!	!	!	!	!
.	.	.	.	.	2B\)	.	.	.	.	1d)	.	.	.	.	.	.	.	.	.
!	!	!	!	!	!LO:TX:t=P:problem:kreska pseudotaktowa	!	!	!	!	!	!	!	!	!	!	!	!	!	!
2F	-ti-	-se-	-gu-	-sci-	2A\	-ti-	-se-	-gu-	-sci-	.	.	.	.	.	.	.	.	.	.
=14	=14-	=14-	=14-	=14-	=14	=14-	=14-	=14-	=14-	=14-	=14-	=14-	=14-	=14-	=14-	=14-	=14-	=14-	=14-
!LO:TX:t=P:problem:kreska pseudotaktowa	!	!	!	!	!LO:TX:t=P:problem:kreska pseudotaktowa	!	!	!	!	!LO:TX:t=P:problem:kreska pseudotaktowa	!	!	!	!	!LO:TX:t=P:problem:kreska pseudotaktowa	!	!	!	!
0.E,	-b(us)	-cl(ae),	-la,	-a,	0.B,	-b(us)	-cl(ae)	-la,	-a,	0.e,	-b(us)	-cl(ae)	-la,	-a	0.g#X	-b(us)	-cl(ae),	-la,	-a,
=15	=15-	=15-	=15-	=15-	=15	=15-	=15-	=15-	=15-	=15	=15-	=15-	=15-	=15-	=15	=15-	=15-	=15-	=15-
1.C	ui-	Je-	Nec	Con-	(2e\	Vi-	Je-	Nec	Con-	(2g\	Vi-	Je-	Nec	con-	0.r	.	.	.	.
.	.	.	.	.	2d\	.	.	.	.	2f\	.	.	.	.	.	.	.	.	.
.	.	.	.	.	2c\)	.	.	.	.	2e\)	.	.	.	.	.	.	.	.	.
2D/	.	.	.	-ser-	2B\	.	.	.	.	2d\	.	.	.	.	.	.	.	.	.
!	!	!	!	!	!LO:TX:t=P:problem:kreska pseudotaktowa	!	!	!	!	!LO:TX:t=P:problem:kreska pseudotaktowa	!	!	!	!	!	!	!	!	!
2E/	.	.	.	.	1c	-cto-	-su,	Car-	-ser-	1e	-cto-	.	Car-	-ser-	.	.	.	.	.
!LO:TX:t=P:problem:kreska pseudotaktowa	!	!	!	!	!	!	!	!	!	!	!	!	!	!	!	!	!	!	!
2C/	.	.	.	.	.	.	.	.	.	.	.	.	.	.	.	.	.	.	.
=16	=16-	=16-	=16-	=16-	=16	=16-	=16-	=16-	=16-	=16	=16-	=16-	=16-	=16-	=16-	=16-	=16-	=16-	=16-
*	*	*	*	*	*	*	*	*	*	*col	*	*	*	*	*	*	*	*	*
0F	-cto-	.	Car-	.	1A,	-rum	Je-	-psit	-uat,	0c,	-rum	-su	-psit	-vat	2a\	Vi-	Je-	Nec	Con-
.	.	.	.	.	.	.	.	.	.	.	.	.	.	.	2g/	.	.	.	.
.	.	.	.	.	1A	ge-	-su	pe-	Con-	.	.	.	.	.	2f/	.	.	.	.
.	.	.	.	.	.	.	.	.	.	.	.	.	.	.	2e/	.	.	.	.
!	!	!	!	!	!LO:TX:t=P:problem:kreska pseudotaktowa	!	!	!	!	!	!	!	!	!	!	!	!	!	!
!LO:TX:t=P:problem:kreska pseudotaktowa	!	!	!	!	!LO:TX:t=P:problem:po nucie skreślenia	!	!	!	!	!	!	!	!	!	!LO:TX:t=P:problem:kreska pseudotaktowa	!	!	!	!
1F,	-rum	-su	-psit	-uat	1d	-nus	Rex	-Ne-	-ser-	0f	ge-	Rex	pe-	/con-	1f	-cto-	.	Car-	-ser-
*	*	*	*	*	*	*	*	*	*	*Xcol	*	*	*	*	*	*	*	*	*
=17	=17-	=17-	=17-	=17-	=17	=17-	=17-	=17-	=17-	=17-	=17-	=17-	=17-	=17-	=17	=17-	=17-	=17-	=17-
0.G	ge-	Rex	pe-	pa-	2B\	o-	bo-	-tra-	.	.	.	.	.	.	0d,	-rum	-su	-psit	-uat
.	.	.	.	.	2A/	.	.	.	.	.	.	.	.	.	.	.	.	.	.
.	.	.	.	.	(1B	-pti-	.	-li-	.	1d	.	bo-	.	-ser-	.	.	.	.	.
!	!	!	!	!	!LO:TX:t=P:problem:kreska pseudotaktowa	!	!	!	!	!LO:TX:t=P:problem:kreska pseudotaktowa	!	!	!	!	!	!	!	!	!
.	.	.	.	.	1B,)	-mu(m)	-ne	-a	-uat	1e,	-nus	-ne	-ne-	-vat/	1g	ge-	rex	pe-	pa-
=18-	=18-	=18-	=18-	=18-	=18	=18-	=18-	=18-	=18-	=18	=18-	=18-	=18-	=18-	=18-	=18-	=18-	=18-	=18-
0A	-nus	bo-	-ne-	-ti-	(2c\	o-	bo-	pe-	con-	(0e	ge-	C(ae)-	-tra-	pa-	0e	-n(us)	bo-	-ne-	-ti-
!	!	!	!	!	!LO:SIC:v:t=custos e	!	!	!	!	!	!	!	!	!	!	!	!	!	!
.	.	.	.	.	2d\)	.	.	.	.	.	.	.	.	.	.	.	.	.	.
.	.	.	.	.	2e\	.	.	.	-ser-	.	.	.	.	.	.	.	.	.	.
!	!	!	!	!	!LO:LB:g=original	!	!	!	!	!	!	!	!	!	!	!	!	!	!
.	.	.	.	.	2c\	.	.	.	-uat	.	.	.	.	.	.	.	.	.	.
!LO:TX:t=P:problem:kreska pseudotaktowa	!	!	!	!	!LO:TX:t=P:problem:kreska pseudotaktowa	!	!	!	!	!LO:TX:t=P:problem:kreska pseudotaktowa	!	!	!	!	!LO:TX:t=P:problem:kreska pseudotaktowa	!	!	!	!
1F	o-	-ne	.	-en-	1d	.	.	.	pa-	1d)	-n(us)	.	.	-ti-	1a	.	-ne	.	.
=19-	=19-	=19-	=19-	=19-	=19	=19-	=19-	=19-	=19-	=19	=19-	=19-	=19-	=19-	=19	=19-	=19-	=19-	=19-
0E	.	C(ae)-	-tra-	.	1Bn	.	-ne	-ne-	-ti-	0e	op-	.	.	-en-	0a	op-	C(ae)-	-tra-	-en-
.	.	.	.	.	1.B	-pti-	Cae-	-tra-	-en-	.	.	.	.	.	.	.	.	.	.
!LO:TX:t=P:problem:kreska pseudotaktowa	!	!	!	!	!	!	!	!	!	!	!	!	!	!	!	!	!	!	!
1E	-pti-	-li-	-li-	-ti-	.	.	.	.	.	1e	-ti-	-li-	-li-	-ti-	1g#X	-ti-	-li-	-li-	-ti-
.	.	.	.	.	2B\	-mum.	-li-	-li-	-ti-	.	.	.	.	.	.	.	.	.	.
=20	=20-	=20-	=20-	=20-	=20-	=20-	=20-	=20-	=20-	=20-	=20-	=20-	=20-	=20-	=20	=20-	=20-	=20-	=20-
!	!	!	!	!	!LO:TX:a:t=P:problem:# above	!	!	!	!	!	!	!	!	!	!	!	!	!	!
0.AA;	-mum.	-tum.	-a.	-am.	0.c#X;<	.	-tum	-a.	-am.	0.e;<	-mum	-tum	-a.	-am	0.a;<	-mum	-tum	-a	-am
==	=-	=-	=-	=-	==	=-	=-	=-	=-	==	=-	=-	=-	=-	==	=-	=-	=-	=-
*-	*-	*-	*-	*-	*-	*-	*-	*-	*-	*-	*-	*-	*-	*-	*-	*-	*-	*-	*-
!!!system-decoration: [(s1,s2,s3,s4)]
!!!RDF**kern: > = above
!!!RDF**kern: < = below
!!!AIN: 1 alto 1 empty 1 tenor 1 vox
!!!ENC: Mateusz Solarz
!!!END: 2021-03-16
